!!!OTL: 2036. Die arme Herle.
!!!ODT: 1892
!!!ARE: Europa, Mitteleuropa, Deutschland, Hessen, Wetterau; Wetterfeld
!!!SCT: E2036
!!!TXL: @@DE
!!!YEM: Copyright 1995, estate of Helmut Schaffrath.
**kern	**text
*ICvox	*
*M3/4	*
*k[b-]	*
*F:	*
!LO:TX:a:t=Aus Wetterfeld bei Solms-Laubach und Wetterau 1892.	!
{4c	Da
=1	=1
4f	dro-
4a	-ben,
8ccL	da
8aJ	.
=2	=2
4g	dro-
8fL	-ben
8eJ}	.
{8dL	vor
8cJ	der
=3	=3
4f	himm-
4a	-li-
8ccL	-ſchen
8aJ	.
=4	=4
2g}	Thür,
{8cc	ei
8cc	da
=5	=5
4.dd	ſteht
8cc	ein
8b-	ar-
8dd	-mer
=6	=6
4.cc	Sün-
8b-}	-der
{4a	und
=7	=7
4b-/	wei-
4a	-net
4g	ſo
=8	=8
2f}	ſehr.
{8cc	ei
8cc	da
=9	=9
4.dd	ſteht
8cc	ein
8b-	ar-
8dd	-mer
=10	=10
4.cc	Sün-
8b-}	-der
{4a	und
=11	=11
4b-/	wei-
4a	-net
4g	ſo
=12	=12
2f}	ſehr.
==	==
!!!AGN: geistlich, Wallfahrts - Lied
!!!ONB: ESAC (Essen Associative Code) Database: ERK3
!!!AMT: simple triple
!!!AIN: vox
!!!EED: Helmut Schaffrath
!!!EEV: 1.0
!!!GTL: 4. Katholische Lieder: a) Wallfahrtlieder zur Bittwoche und zum Fronleichnamstag.
!!!URL-scan: https://rosdok.uni-rostock.de/mcrviewer/recordIdentifier/rosdok_ppn745177999/iview2/phys_0743.iview2?x=93.05842105618808&y=1178.7651090011932&scale=0.7014306698522891&rotation=0&layout=singlePageLayout
!!!ENC: Anna Maria Matuszewska
!!!EEV: 2025/13/01
*-	*-
